X:1
T:Title
%%score { 1 | 2 }
L:1/8
M:4/4
K:C
V:1 treble nm="Grand Piano"
V:2 bass 
V:1
 z4 z2[Q:1/4=100] G2 | c3 G ECEG | A4 G2 [EG][Ec] | B2 B2 c2 d2 |[M:3/4] [CEc]6 |[M:1/4] E2 | %6
[M:4/4] A3 E CEAB | c4 A2 Bc | [Gd]2 [B,G]2 [DGB]3 [C^FA] |[M:3/4] [B,G]6 |[M:1/4] [G,CE]>[G,DF] | %11
[M:4/4] [CEG]3 [A,_E^F] [G,=EG]2 [Ec]2 | [Fc]2 [FB]4 DE | F2 G2 B3 A |[M:3/4] [EG]6 | %15
[M:1/4] [CE]>[DF] |[M:4/4] [EG]3 [_E^F] [=EG]2 [Ge]2 | e2 d2 c2 A2 | G3 c c2 d2 |[M:3/4] [Ec]6 |] %20
V:2
 z4 z2 G,2 | C3 G, E,C,E,G, | A,4 G,2 [C,C][C,C] | [G,DF]2 [G,DF]2 [G,CE]2 [G,B,F]2 | %4
[M:3/4][K:bass] C,6 |[M:1/4] E,2 |[M:4/4] A,3 E, C,E,A,[^G,B,E] | [A,E]4 [A,CE]2 [^G,DE][A,CE] | %8
 [D,B,]2 E,2 D,3 D, |[M:3/4] G,6 |[M:1/4] C,>C, |[M:4/4] C,3 C, C,2 [C,G,]2 | %12
 [D,G,]2 [D,G,]4 [G,B,][K:treble][G,C] | [G,B,D]2 [G,B,E]2 [G,DF]3 [G,B,F] | %14
[M:3/4][K:bass] [C,C]6 |[M:1/4] [C,G,]>[C,G,] |[M:4/4] [C,C]3 [C,A,] [C,G,]2 [C,_B,]2 | %17
 [F,A,F]2 [F,A,F]2 [F,A,F]2 [F,CF]2 | [G,CE]3 [G,EG] [G,DF]2 [G,B,F]2 |[M:3/4][K:bass] [C,C]6 |] %20

